img/icones/objetivo-icon.svg

<svg width="100" height="100" viewBox="0 0 100 100" fill="none" xmlns="http://www.w3.org/2000/svg">
<path d="M37.4078 7.66038C37.4078 6.5863 38.2847 5.70945 39.3587 5.70945C40.4327 5.70945 41.3096 6.58636 41.3096 7.66038C41.3096 8.73439 40.4327 9.6113 39.3587 9.6113C38.2847 9.6113 37.4078 8.73439 37.4078 7.66038V7.66038ZM61.9757 25.2892H16.744C15.8531 25.2892 15.1314 26.0109 15.1314 26.9018C15.1314 27.7927 15.8531 28.5144 16.744 28.5144H61.9775C62.8685 28.5144 63.5901 27.7927 63.5901 26.9018C63.5909 26.0116 62.8677 25.2892 61.9768 25.2892H61.9757ZM99.5271 36.3522L90.4482 45.4311C92.4662 49.383 93.5322 53.7913 93.5322 58.2582C93.5322 68.9688 87.5334 78.3042 78.7208 83.0841V94.047C78.7208 97.3289 76.051 99.9993 72.7686 99.9993L5.95223 100C2.67036 100 0 97.3302 0 94.0478V14.2139C0 10.9321 2.66979 8.26302 5.95223 8.26302H21.0438V7.25294C21.0438 6.36204 21.7655 5.64035 22.6564 5.64035H31.0159C32.3614 2.26281 35.6308 0 39.3607 0C43.0906 0 46.3599 2.26431 47.7055 5.64035H56.065C56.9559 5.64035 57.6776 6.36204 57.6776 7.25294V8.26229H72.7691C76.051 8.26229 78.7214 10.9321 78.7214 14.2132V32.6609L87.2794 24.1029C87.6965 23.6858 88.31 23.529 88.8758 23.696C89.443 23.863 89.8719 24.3258 89.9962 24.9033L91.1402 30.2097L93.49 27.8599C94.1197 27.2302 95.1408 27.2302 95.7705 27.8599C96.4002 28.4896 96.4002 29.5107 95.7705 30.1404L93.4207 32.4902L98.7271 33.6342C99.3039 33.7585 99.7673 34.1882 99.9344 34.7546C100.101 35.3218 99.9454 35.9346 99.5275 36.3518L99.5271 36.3522ZM79.6016 36.3448L80.5595 40.7919L88.7092 32.6422C88.4458 32.42 88.2501 32.114 88.1721 31.752L87.4666 28.479L79.6016 36.3448ZM70.5419 55.372L66.7487 59.1652C66.4331 59.4808 66.0212 59.6375 65.6085 59.6375C65.1957 59.6375 64.7838 59.48 64.4682 59.1652C63.8384 58.5354 63.8384 57.5143 64.4682 56.8846L68.2781 53.0747C67.4034 52.573 66.3918 52.2839 65.3126 52.2839C62.0176 52.2839 59.3374 54.9646 59.3374 58.2604C59.3374 61.5554 62.0181 64.2356 65.3126 64.2356C68.6077 64.2356 71.2892 61.5549 71.2892 58.2604C71.2884 57.2135 71.017 56.2292 70.5417 55.3721L70.5419 55.372ZM75.0898 46.2622C72.4215 44.0839 69.0176 42.7743 65.312 42.7743C56.7737 42.7743 49.8268 49.7205 49.8268 58.2595C49.8268 66.7977 56.773 73.7447 65.312 73.7447C73.8502 73.7447 80.7972 66.7984 80.7972 58.2595C80.7972 54.5855 79.5083 51.2087 77.3631 48.55L72.8799 53.0333C73.9091 54.5186 74.5138 56.3195 74.5138 58.2595C74.5138 63.3328 70.3867 67.4612 65.3121 67.4612C60.2375 67.4612 56.1104 63.3341 56.1104 58.2595C56.1104 53.1849 60.2375 49.0578 65.3121 49.0578C67.283 49.0578 69.1096 49.6831 70.6082 50.7417L75.0898 46.2622ZM57.6779 11.4886V14.2989H71.0723C71.9632 14.2989 72.6849 15.0206 72.6849 15.9115V31.0185C73.6376 31.2752 74.5748 31.5842 75.4952 31.9403V14.2143C75.4952 12.7113 74.2725 11.4886 72.7694 11.4886H57.6779ZM65.3127 30.0385C66.7061 30.0385 68.0914 30.1452 69.4598 30.3482V17.5247H57.6779V18.5341C57.6779 19.425 56.9562 20.1466 56.0653 20.1466H22.6572C21.7663 20.1466 21.0446 19.425 21.0446 18.5341V17.5247H9.26272V90.7387H69.4592V86.1739C68.1056 86.374 66.7203 86.4792 65.3121 86.4792C60.3801 86.4792 55.7426 85.2058 51.7037 82.9746H16.7455C15.8546 82.9746 15.1329 82.2529 15.1329 81.362C15.1329 80.4711 15.8546 79.7494 16.7455 79.7494H47.0425C44.5103 77.5932 42.362 74.9978 40.7179 72.0837L16.7451 72.083C15.8542 72.083 15.1326 71.3613 15.1326 70.4704C15.1326 69.5795 15.8542 68.8578 16.7451 68.8578H39.1604C38.1805 66.4485 37.5235 63.8758 37.2454 61.1921L16.7455 61.1914C15.8546 61.1914 15.1329 60.4697 15.1329 59.5788C15.1329 58.6879 15.8546 57.9662 16.7455 57.9662H37.0967C37.1239 55.3075 37.5204 52.7357 38.2384 50.3005L16.746 50.2998C15.8551 50.2998 15.1334 49.5781 15.1334 48.6872C15.1334 47.7963 15.8551 47.0746 16.746 47.0746H39.408C40.6321 44.2511 42.3036 41.6659 44.334 39.4089L16.7471 39.4082C15.8562 39.4082 15.1345 38.6865 15.1345 37.7956C15.1345 36.9047 15.8562 36.183 16.7471 36.183H47.7597C52.582 32.3399 58.6845 30.0395 65.3151 30.0395L65.3127 30.0385ZM24.2696 16.9216H54.4535V8.86663H46.5325C45.788 8.86663 45.1391 8.35608 44.9647 7.63144C44.3394 5.03754 42.036 3.22617 39.3626 3.22617C36.69 3.22617 34.3858 5.03813 33.7605 7.63144C33.5862 8.35535 32.9373 8.86663 32.1928 8.86663H24.2712L24.2719 16.9216H24.2696ZM75.4958 84.5779C74.5806 84.9325 73.6434 85.2415 72.6855 85.5004V92.351C72.6855 93.2419 71.9638 93.9636 71.0729 93.9636L7.65032 93.9643C6.75942 93.9643 6.03773 93.2426 6.03773 92.3517V15.9116C6.03773 15.0207 6.75942 14.299 7.65032 14.299H21.0447V11.4887H5.95307C4.45009 11.4887 3.22735 12.7114 3.22735 14.2145V94.0483C3.22735 95.5513 4.45003 96.774 5.95307 96.774H72.7713C74.2743 96.774 75.497 95.5514 75.497 94.0483L75.4958 84.5779ZM90.3072 58.2604C90.3072 54.4923 89.4545 50.772 87.831 47.4048C87.8236 47.4048 87.8155 47.4055 87.8082 47.4055C87.6949 47.4055 87.5816 47.3937 87.469 47.3695L81.3027 46.0401C80.94 45.9621 80.6339 45.7664 80.4118 45.5038L79.657 46.2586C82.3812 49.5096 84.0246 53.6962 84.0246 58.2597C84.0246 68.5767 75.6314 76.9708 65.3134 76.9708C54.9957 76.9708 46.6023 68.5776 46.6023 58.2597C46.6023 47.9419 54.9955 39.5485 65.3134 39.5485C69.9078 39.5485 74.1202 41.2141 77.3806 43.9713L78.1295 43.2224C77.8669 43.0002 77.6712 42.6942 77.5932 42.3315L76.2639 36.1651C76.2352 36.0342 76.2241 35.9025 76.2285 35.7715C72.8452 34.128 69.1043 33.2658 65.3126 33.2658C51.5305 33.2658 40.3191 44.4781 40.3191 58.2593C40.3191 72.0414 51.5315 83.2528 65.3126 83.2528C79.0938 83.2528 90.3062 72.0405 90.3062 58.2593L90.3072 58.2604ZM95.1545 36.1653L91.8814 35.4598C91.5187 35.3818 91.2127 35.1861 90.9905 34.9235L82.8409 43.0732L87.2879 44.031L95.1545 36.1653Z" fill="#E0E0E0"/>
</svg>

<svg width="100" height="100" fill="none" xmlns="http://www.w3.org/2000/svg"><path d="M37.408 7.66c0-1.074.877-1.95 1.95-1.95 1.075 0 1.952.876 1.952 1.95 0 1.074-.877 1.951-1.951 1.951a1.955 1.955 0 0 1-1.951-1.95Zm24.568 17.63H16.744a1.612 1.612 0 1 0 0 3.224h45.233a1.612 1.612 0 1 0 0-3.225h-.001Zm37.551 11.062-9.079 9.08a28.25 28.25 0 0 1 3.084 12.826c0 10.71-5.999 20.046-14.811 24.826v10.963a5.959 5.959 0 0 1-5.952 5.952L5.952 100A5.959 5.959 0 0 1 0 94.048V14.214c0-3.282 2.67-5.951 5.952-5.951h15.092v-1.01c0-.891.721-1.613 1.612-1.613h8.36A8.956 8.956 0 0 1 39.36 0c3.73 0 6.999 2.264 8.345 5.64h8.359c.89 0 1.613.722 1.613 1.613v1.01h15.091a5.959 5.959 0 0 1 5.952 5.95v18.448l8.558-8.558a1.614 1.614 0 0 1 2.717.8l1.144 5.307 2.35-2.35a1.613 1.613 0 0 1 2.28 2.28l-2.35 2.35 5.307 1.144a1.613 1.613 0 0 1 .8 2.718Zm-19.925-.007.957 4.447 8.15-8.15a1.603 1.603 0 0 1-.537-.89l-.705-3.273-7.865 7.866Zm-9.06 19.027-3.793 3.793a1.609 1.609 0 0 1-2.28 0c-.63-.63-.63-1.65 0-2.28l3.81-3.81a5.941 5.941 0 0 0-2.966-.791 5.982 5.982 0 0 0-5.976 5.976 5.982 5.982 0 0 0 5.976 5.976 5.983 5.983 0 0 0 5.976-5.976 5.947 5.947 0 0 0-.747-2.888Zm4.548-9.11a15.413 15.413 0 0 0-9.778-3.488c-8.538 0-15.485 6.947-15.485 15.486 0 8.538 6.946 15.485 15.485 15.485 8.538 0 15.485-6.947 15.485-15.486 0-3.673-1.289-7.05-3.434-9.709l-4.483 4.483a9.147 9.147 0 0 1 1.634 5.227c0 5.073-4.127 9.201-9.202 9.201s-9.202-4.127-9.202-9.201c0-5.075 4.127-9.202 9.202-9.202a9.15 9.15 0 0 1 5.296 1.684l4.482-4.48ZM57.678 11.49v2.81h13.394c.891 0 1.613.722 1.613 1.613v15.106c.953.257 1.89.566 2.81.922V14.214a2.729 2.729 0 0 0-2.726-2.725H57.678Zm7.635 18.55c1.393 0 2.778.106 4.147.31V17.524H57.678v1.01c0 .89-.722 1.612-1.613 1.612H22.657c-.89 0-1.612-.722-1.612-1.613v-1.01H9.263V90.74h60.196v-4.565a28.35 28.35 0 0 1-4.147.305c-4.932 0-9.57-1.273-13.608-3.504H16.745a1.612 1.612 0 1 1 0-3.226h30.297a28.42 28.42 0 0 1-6.324-7.665l-23.973-.001a1.612 1.612 0 1 1 0-3.225H39.16a27.982 27.982 0 0 1-1.915-7.666h-20.5a1.612 1.612 0 1 1 0-3.226h20.352c.027-2.659.423-5.23 1.141-7.666H16.746a1.612 1.612 0 1 1 0-3.225h22.662a28.294 28.294 0 0 1 4.926-7.666H16.747a1.612 1.612 0 1 1 0-3.226H47.76a28.079 28.079 0 0 1 17.555-6.143l-.002-.002ZM24.27 16.921h30.183V8.867h-7.92c-.745 0-1.394-.51-1.568-1.236a5.742 5.742 0 0 0-5.602-4.405 5.744 5.744 0 0 0-5.602 4.405 1.614 1.614 0 0 1-1.568 1.236H24.27v8.055h-.001Zm51.226 67.656c-.915.355-1.853.663-2.81.922v6.851c0 .89-.722 1.613-1.613 1.613H7.65c-.89 0-1.612-.721-1.612-1.612v-76.44c0-.891.721-1.613 1.612-1.613h13.395v-2.81H5.953a2.729 2.729 0 0 0-2.726 2.725v79.834a2.729 2.729 0 0 0 2.726 2.726h66.818a2.729 2.729 0 0 0 2.726-2.726l-.001-9.47ZM90.307 58.26a25.03 25.03 0 0 0-2.476-10.855h-.023c-.113 0-.226-.011-.339-.035l-6.166-1.33a1.605 1.605 0 0 1-.891-.536l-.755.755a18.628 18.628 0 0 1 4.368 12c0 10.318-8.394 18.712-18.712 18.712-10.317 0-18.71-8.393-18.71-18.711 0-10.318 8.392-18.712 18.71-18.712 4.595 0 8.807 1.666 12.068 4.423l.748-.749a1.606 1.606 0 0 1-.536-.89l-1.33-6.167a1.585 1.585 0 0 1-.035-.393 25.011 25.011 0 0 0-10.915-2.506c-13.782 0-24.994 11.212-24.994 24.993 0 13.782 11.212 24.994 24.994 24.994 13.78 0 24.993-11.213 24.993-24.994l.001.001Zm4.847-22.095-3.273-.705a1.606 1.606 0 0 1-.89-.537l-8.15 8.15 4.447.958 7.867-7.866Z" fill="#E0E0E0"/></svg>
